raw/symbols/doge.svg

<svg width="42" height="42" viewBox="0 0 42 42" fill="none" xmlns="http://www.w3.org/2000/svg">
<path d="M21 41C32.0457 41 41 32.0457 41 21C41 9.9543 32.0457 1 21 1C9.9543 1 1 9.9543 1 21C1 32.0457 9.9543 41 21 41Z" fill="#C3A634"/>
<path fill-rule="evenodd" clip-rule="evenodd" d="M13.5425 31.8022H20.7855C20.7855 31.8022 30.9699 32.6558 30.9699 21.174C30.9699 10.1374 21.6698 10.1765 19.8723 10.1841C19.8303 10.1842 19.7923 10.1844 19.7587 10.1844H13.5423V19.8142H10.9893V22.173H13.5425V31.8022ZM17.6221 14.1807H20.4797C21.5485 14.1807 26.9257 14.6109 26.9343 21.2523C26.9428 27.8146 21.5213 27.8078 20.6492 27.8067C20.6387 27.8067 20.6288 27.8067 20.6197 27.8067H17.6221V22.1733H22.1179V19.8145H17.6221V14.1807Z" fill="#F3F3F3"/>
</svg>

<svg xmlns="http://www.w3.org/2000/svg" width="42" height="42" fill="none"><path fill="#C3A634" d="M21 41c11.046 0 20-8.954 20-20S32.046 1 21 1 1 9.954 1 21s8.954 20 20 20Z"/><path fill="#F3F3F3" fill-rule="evenodd" d="M13.543 31.802h7.242s10.185.854 10.185-10.628c0-11.037-9.3-10.997-11.098-10.99h-6.33v9.63H10.99v2.359h2.553v9.63Zm4.08-17.621h2.857c1.069 0 6.446.43 6.454 7.071.009 6.563-5.413 6.556-6.285 6.555H17.622v-5.634h4.496v-2.358h-4.496V14.18Z" clip-rule="evenodd"/></svg>
